flaticon/monuments/louvre.svg

<svg xmlns="http://www.w3.org/2000/svg" width="32" height="32" viewBox="0 0 24 24">
    <path d="M 12 0 C 5.398438 0 0 5.398438 0 12 C 0 15.574219 1.585938 18.796875 4.085938 21 C 4.171875 21.074219 4.253906 21.148438 4.339844 21.21875 C 4.371094 21.273438 4.417969 21.324219 4.480469 21.359375 C 4.503906 21.371094 4.523438 21.378906 4.542969 21.386719 C 5.148438 21.875 5.800781 22.300781 6.488281 22.65625 C 6.496094 22.664062 6.507812 22.671875 6.519531 22.679688 C 6.539062 22.691406 6.558594 22.699219 6.574219 22.703125 C 7.449219 23.148438 8.375 23.484375 9.339844 23.703125 C 9.359375 23.710938 9.378906 23.714844 9.398438 23.714844 C 9.84375 23.816406 10.300781 23.890625 10.761719 23.9375 C 10.773438 23.9375 10.785156 23.9375 10.796875 23.941406 C 10.878906 23.949219 10.964844 23.957031 11.046875 23.960938 C 11.082031 23.964844 11.117188 23.96875 11.152344 23.96875 C 11.21875 23.972656 11.285156 23.980469 11.355469 23.980469 C 11.390625 23.984375 11.429688 23.984375 11.46875 23.988281 C 11.511719 24 11.546875 24 11.601562 24 C 11.617188 24 11.632812 24 11.652344 23.996094 C 11.660156 23.996094 11.664062 23.996094 11.671875 23.996094 C 11.78125 24 11.890625 24 12 24 C 12.109375 24 12.21875 24 12.328125 23.996094 C 12.335938 23.996094 12.339844 23.996094 12.347656 23.996094 C 12.367188 23.996094 12.382812 24 12.398438 24 C 12.453125 24 12.488281 24 12.53125 23.988281 C 12.574219 23.984375 12.617188 23.984375 12.660156 23.980469 C 12.699219 23.980469 12.738281 23.976562 12.78125 23.972656 C 12.851562 23.96875 12.917969 23.964844 12.988281 23.957031 C 13.03125 23.957031 13.070312 23.953125 13.113281 23.949219 C 13.179688 23.941406 13.246094 23.933594 13.3125 23.925781 C 13.355469 23.921875 13.398438 23.917969 13.441406 23.914062 C 13.507812 23.90625 13.574219 23.894531 13.640625 23.886719 C 13.683594 23.878906 13.726562 23.875 13.769531 23.867188 C 13.832031 23.859375 13.898438 23.847656 13.964844 23.835938 C 14.003906 23.832031 14.046875 23.824219 14.089844 23.816406 C 14.15625 23.804688 14.222656 23.792969 14.289062 23.777344 C 14.335938 23.769531 14.386719 23.761719 14.433594 23.75 C 14.480469 23.738281 14.527344 23.730469 14.578125 23.71875 C 14.613281 23.714844 14.652344 23.707031 14.6875 23.695312 C 14.695312 23.691406 14.699219 23.691406 14.703125 23.691406 C 14.769531 23.675781 14.832031 23.660156 14.898438 23.644531 C 14.933594 23.632812 14.96875 23.625 15.007812 23.617188 C 15.074219 23.597656 15.144531 23.578125 15.210938 23.558594 C 15.242188 23.550781 15.273438 23.542969 15.300781 23.535156 C 15.375 23.515625 15.449219 23.492188 15.519531 23.46875 C 15.542969 23.460938 15.566406 23.457031 15.589844 23.449219 C 15.667969 23.421875 15.746094 23.398438 15.824219 23.371094 C 15.835938 23.367188 15.847656 23.363281 15.859375 23.359375 C 16.386719 23.179688 16.898438 22.964844 17.394531 22.710938 C 17.417969 22.707031 17.445312 22.695312 17.480469 22.679688 C 17.5 22.667969 17.523438 22.652344 17.539062 22.636719 C 17.832031 22.484375 18.117188 22.316406 18.398438 22.140625 C 18.453125 22.125 18.503906 22.09375 18.542969 22.042969 C 18.648438 21.976562 18.753906 21.902344 18.859375 21.832031 C 18.898438 21.804688 18.933594 21.777344 18.972656 21.75 C 19.007812 21.726562 19.042969 21.699219 19.078125 21.671875 C 19.140625 21.625 19.203125 21.578125 19.265625 21.53125 C 19.28125 21.519531 19.296875 21.511719 19.308594 21.5 C 19.355469 21.460938 19.40625 21.425781 19.453125 21.386719 C 19.472656 21.382812 19.496094 21.371094 19.519531 21.359375 C 19.585938 21.320312 19.640625 21.265625 19.679688 21.203125 C 22.316406 18.996094 24 15.6875 24 12 C 24 5.398438 18.601562 0 12 0 Z M 3.289062 19.019531 L 3.492188 18.640625 L 4.386719 20.195312 C 3.992188 19.828125 3.628906 19.4375 3.289062 19.019531 Z M 3.960938 17.800781 C 3.957031 17.796875 3.957031 17.792969 3.953125 17.789062 L 4.75 16.3125 L 5.832031 18.117188 L 4.996094 19.601562 Z M 8.230469 15.546875 L 9.148438 13.921875 L 10.078125 15.53125 L 9.160156 17.160156 Z M 8.6875 17.992188 L 7.726562 19.699219 L 6.777344 18.121094 L 7.761719 16.382812 Z M 12 12.125 L 11.082031 10.496094 L 12 8.871094 L 12.917969 10.496094 Z M 13.390625 11.335938 L 14.378906 13.085938 L 13.453125 14.699219 L 12.472656 12.960938 Z M 11.527344 12.960938 L 10.546875 14.699219 L 9.621094 13.085938 L 10.609375 11.335938 Z M 10.554688 16.363281 L 11.523438 18.050781 L 10.601562 19.660156 L 9.636719 17.988281 Z M 11.023438 15.53125 L 12 13.800781 L 12.976562 15.53125 L 12 17.226562 Z M 13.445312 16.363281 L 14.363281 17.988281 L 13.398438 19.660156 L 12.476562 18.050781 Z M 13.921875 15.53125 L 14.851562 13.921875 L 15.769531 15.546875 L 14.839844 17.160156 Z M 16.238281 16.382812 L 17.082031 17.871094 L 16.175781 19.523438 L 15.3125 17.992188 Z M 16.71875 15.554688 L 17.816406 13.648438 L 18.660156 15.210938 C 18.570312 15.246094 18.492188 15.308594 18.441406 15.398438 L 17.546875 17.023438 Z M 17.238281 13 L 16.246094 14.71875 L 15.328125 13.089844 L 16.457031 11.125 L 17.390625 12.855469 C 17.332031 12.886719 17.277344 12.933594 17.238281 13 Z M 14.855469 12.257812 L 13.863281 10.496094 L 15.019531 8.449219 L 16 10.269531 Z M 14.441406 7.800781 L 13.390625 9.660156 L 12.472656 8.035156 L 13.660156 5.929688 L 14.585938 7.648438 C 14.53125 7.683594 14.480469 7.734375 14.441406 7.800781 Z M 12 7.195312 L 10.800781 5.070312 L 12 2.839844 L 13.199219 5.070312 Z M 11.527344 8.035156 L 10.609375 9.660156 L 9.558594 7.800781 C 9.523438 7.734375 9.46875 7.683594 9.414062 7.648438 L 10.339844 5.929688 Z M 10.136719 10.496094 L 9.144531 12.257812 L 8 10.269531 L 8.980469 8.449219 Z M 8.671875 13.089844 L 7.753906 14.71875 L 6.761719 13 C 6.722656 12.9375 6.671875 12.882812 6.613281 12.847656 L 7.542969 11.125 Z M 7.28125 15.554688 L 6.292969 17.308594 L 5.195312 15.484375 L 6.183594 13.648438 Z M 6.554688 21.777344 C 6.394531 21.6875 6.238281 21.59375 6.085938 21.496094 L 5.472656 20.433594 L 6.320312 18.929688 L 7.269531 20.507812 Z M 7.289062 22.152344 L 7.757812 21.320312 L 8.558594 22.65625 C 8.125 22.511719 7.699219 22.34375 7.289062 22.152344 Z M 9.183594 22.121094 L 8.214844 20.507812 L 9.167969 18.820312 L 10.125 20.484375 Z M 11.367188 23.179688 C 11.324219 23.179688 11.277344 23.175781 11.234375 23.171875 C 11.195312 23.171875 11.152344 23.167969 11.113281 23.164062 C 11.046875 23.160156 10.976562 23.152344 10.910156 23.148438 C 10.886719 23.144531 10.859375 23.140625 10.832031 23.140625 C 10.753906 23.128906 10.671875 23.121094 10.59375 23.113281 C 10.585938 23.109375 10.574219 23.109375 10.566406 23.109375 C 10.269531 23.070312 9.976562 23.019531 9.6875 22.957031 L 9.671875 22.929688 L 10.601562 21.308594 L 11.523438 22.90625 Z M 12 22.082031 L 11.078125 20.484375 L 12 18.878906 L 12.921875 20.484375 Z M 14.285156 22.964844 C 14.003906 23.023438 13.722656 23.070312 13.433594 23.109375 C 13.425781 23.109375 13.414062 23.109375 13.40625 23.113281 C 13.328125 23.121094 13.246094 23.128906 13.167969 23.140625 C 13.140625 23.140625 13.113281 23.144531 13.089844 23.148438 C 13.023438 23.152344 12.953125 23.160156 12.886719 23.164062 C 12.847656 23.167969 12.804688 23.171875 12.765625 23.171875 C 12.722656 23.175781 12.675781 23.179688 12.632812 23.179688 L 12.476562 22.90625 L 13.398438 21.308594 L 14.316406 22.90625 Z M 14.78125 22.0625 L 13.875 20.484375 L 14.832031 18.820312 L 15.707031 20.375 Z M 15.386719 22.671875 L 16.183594 21.21875 L 16.710938 22.152344 C 16.285156 22.351562 15.839844 22.527344 15.386719 22.671875 Z M 17.914062 21.496094 C 17.761719 21.59375 17.605469 21.6875 17.445312 21.777344 L 16.652344 20.367188 L 17.558594 18.714844 L 18.527344 20.433594 Z M 19.003906 19.601562 L 18.023438 17.867188 L 19.066406 15.96875 L 20.046875 17.789062 C 20.042969 17.792969 20.042969 17.796875 20.039062 17.800781 Z M 19.613281 20.195312 L 20.507812 18.640625 L 20.710938 19.019531 C 20.371094 19.4375 20.007812 19.828125 19.613281 20.195312 Z M 12 1.160156 L 2.78125 18.335938 C 1.53125 16.53125 0.800781 14.347656 0.800781 12 C 0.800781 5.839844 5.839844 0.800781 12 0.800781 C 18.160156 0.800781 23.199219 5.839844 23.199219 12 C 23.199219 14.347656 22.46875 16.53125 21.21875 18.335938 Z M 12 1.160156"/>
</svg>

<svg xmlns="http://www.w3.org/2000/svg" width="32" height="32" viewBox="0 0 24 24">
    <path d="M12 0C5.398 0 0 5.398 0 12c0 3.574 1.586 6.797 4.086 9 .086.074.168.148.254.219a.374.374 0 0 0 .14.14c.024.012.043.02.063.028.605.488 1.258.914 1.945 1.27a.217.217 0 0 0 .086.046 11.88 11.88 0 0 0 4.578 1.266c.067.004.133.011.203.011.036.004.075.004.114.008.043.012.078.012.133.012.015 0 .03 0 .05-.004h.02c.11.004.219.004.328.004.11 0 .219 0 .328-.004h.02c.02 0 .035.004.05.004.055 0 .09 0 .133-.012.043-.004.086-.004.13-.008.038 0 .077-.003.12-.007.07-.004.137-.008.207-.016.043 0 .082-.004.125-.008l.2-.023.128-.012c.067-.008.133-.02.2-.027.043-.008.086-.012.129-.02.062-.008.128-.02.195-.031a3.584 3.584 0 0 0 .324-.059c.047-.007.098-.015.145-.027.046-.012.093-.02.144-.031a.547.547 0 0 0 .11-.024c.007-.004.011-.004.015-.004l.195-.046a.895.895 0 0 1 .11-.028c.066-.02.137-.039.203-.058l.09-.024c.074-.02.148-.043.219-.066.023-.008.046-.012.07-.02.078-.027.156-.05.234-.078l.035-.012a11.51 11.51 0 0 0 1.536-.648.393.393 0 0 0 .085-.031.323.323 0 0 0 .06-.043c.292-.153.577-.32.858-.496a.275.275 0 0 0 .145-.098c.105-.066.21-.14.316-.211.04-.027.075-.055.114-.082.035-.023.07-.05.105-.078l.188-.14c.015-.012.03-.02.043-.032.046-.04.097-.074.144-.113a.3.3 0 0 0 .067-.028.472.472 0 0 0 .16-.156C22.316 18.996 24 15.688 24 12c0-6.602-5.398-12-12-12zM3.29 19.02l.202-.38.895 1.555a11.57 11.57 0 0 1-1.098-1.175zm.67-1.22c-.003-.003-.003-.007-.007-.01l.797-1.477 1.082 1.804-.836 1.485zm4.27-2.253l.918-1.625.93 1.61-.918 1.628zm.457 2.445l-.96 1.707-.95-1.578.985-1.738zM12 12.125l-.918-1.629L12 8.871l.918 1.625zm1.39-.79l.989 1.75-.926 1.614-.98-1.738zm-1.863 1.626l-.98 1.738-.926-1.613.988-1.75zm-.972 3.402l.968 1.688-.921 1.61-.965-1.673zm.468-.832l.977-1.73.977 1.73L12 17.227zm2.422.832l.918 1.625-.965 1.672-.921-1.61zm.477-.832l.93-1.61.918 1.626-.93 1.613zm2.316.852l.844 1.488-.906 1.652-.863-1.53zm.48-.828l1.098-1.907.844 1.563a.426.426 0 0 0-.219.187l-.894 1.625zm.52-2.555l-.992 1.719-.918-1.63 1.129-1.964.934 1.73a.384.384 0 0 0-.153.145zm-2.383-.742l-.992-1.762L15.02 8.45l.98 1.82zM14.441 7.8l-1.05 1.86-.918-1.626L13.66 5.93l.926 1.718a.453.453 0 0 0-.145.153zM12 7.195L10.8 5.07 12 2.84l1.2 2.23zm-.473.84L10.61 9.66 9.56 7.8a.418.418 0 0 0-.145-.152l.926-1.718zm-1.39 2.461l-.992 1.762L8 10.27l.98-1.82zM8.672 13.09l-.918 1.629L6.762 13a.462.462 0 0 0-.149-.152l.93-1.723zm-1.39 2.465l-.989 1.754-1.098-1.825.989-1.836zm-.727 6.222a9.295 9.295 0 0 1-.47-.28l-.612-1.063.847-1.504.95 1.578zm.734.375l.469-.832.8 1.336a11.92 11.92 0 0 1-1.269-.504zm1.895-.03l-.97-1.614.954-1.688.957 1.664zm2.183 1.058c-.043 0-.09-.004-.133-.008a1.26 1.26 0 0 1-.12-.008c-.067-.004-.137-.012-.204-.016a.48.48 0 0 0-.078-.007c-.078-.012-.16-.02-.238-.028-.008-.004-.02-.004-.028-.004-.296-.039-.59-.09-.879-.152l-.015-.027.93-1.621.921 1.597zM12 22.082l-.922-1.598L12 18.88l.922 1.605zm2.285.883c-.281.058-.562.105-.851.144-.008 0-.02 0-.028.004-.078.008-.16.016-.238.028a.48.48 0 0 0-.078.007c-.067.004-.137.012-.203.016a1.26 1.26 0 0 1-.121.008c-.043.004-.09.008-.133.008l-.156-.274.921-1.597.918 1.597zm.496-.902l-.906-1.579.957-1.664.875 1.555zm.606.609l.797-1.453.527.933c-.426.2-.871.375-1.324.52zm2.527-1.176a9.295 9.295 0 0 1-.469.281l-.793-1.41.907-1.652.968 1.719zm1.09-1.894l-.98-1.735 1.042-1.898.98 1.82c-.003.004-.003.008-.007.012zm.61.593l.894-1.554.203.379c-.34.418-.703.808-1.098 1.175zM12 1.16L2.781 18.336A11.091 11.091 0 0 1 .801 12C.8 5.84 5.84.8 12 .8S23.2 5.84 23.2 12c0 2.348-.731 4.531-1.981 6.336zm0 0"/>
</svg>
